static/images/clients/svg/swedbank.svg

<svg fill="none" height="20" viewBox="0 0 125 20" width="125" xmlns="http://www.w3.org/2000/svg"><g fill="#282828"><path d="m1.33416 5.81347c0 3.36039 2.24155 4.61383 5.60963 5.45583 3.20661.769 3.86411 1.7648 3.86411 3.0297 0 1.3996-1.25346 2.3762-3.05284 2.3762-1.94165 0-3.59109-.6998-5.34818-2.2647-.05768.0731-1.676356 2.0686-1.734028 2.1378 1.972408 1.8109 4.394658 2.7721 7.009148 2.7721 3.5949 0 6.0095-2.1377 6.0095-5.3251 0-2.7875-1.6687-4.45233-5.41354-5.39817-3.395-.84202-4.06016-1.75709-4.06016-3.06049 0-1.13423.96505-2.28 2.81058-2.28 1.51871 0 3.02202.58826 4.59072 1.7917.05-.07305 1.4995-2.18772 1.5457-2.26077-1.7687-1.46104-3.76031-2.172336-6.08644-2.172336-3.32963 0-5.7442 2.183876-5.7442 5.198236z"/><path d="m23.2805 5.84424c-.0192.06536-2.8721 9.26606-2.8721 9.26606s-2.5837-9.14687-2.603-9.21608c-.0692 0-2.7798 0-2.9028 0 .0384.12304 4.0947 13.20708 4.114 13.27238h2.5453c.0192-.0653 2.9182-9.18146 2.9182-9.18146s2.8721 9.11616 2.8952 9.18146h2.5453c.0192-.0653 4.1216-13.14934 4.1601-13.27238-.1231 0-2.7606 0-2.8298 0-.0193.06921-2.6491 9.21228-2.6491 9.21228s-2.876-9.1969-2.8952-9.26226c-.0692 0-2.3569 0-2.4261 0z"/><path d="m35.4686 12.4803v.05c0 3.9602 2.7414 6.8361 6.517 6.8361 2.3992 0 3.7295-.7074 4.7869-1.3726-.0231-.0692-.7421-2.2108-.7805-2.3146-1.1958.8305-2.3838 1.1881-3.9602 1.1881-2.0339 0-3.4296-1.2342-3.7295-3.2989l-.0077-.0538h9.4122c0-.0077 0-.0193 0-.0193l.0423-.7882c0-3.52952-1.8802-7.08601-6.0826-7.08601-3.5295 0-6.1979 2.949-6.1979 6.85921zm2.8106-.9343c.2768-2.14927 1.5995-3.53726 3.3681-3.53726 1.8148 0 3.0797 1.35339 3.295 3.53726l.0039.0538h-6.6708z"/><path d="m60.2987.615234v6.405516l-.0769-.06152c-1.2073-.94968-2.3415-1.33801-3.9064-1.33801-2.9259 0-5.8864 2.3492-5.8864 6.83618v.0499c0 4.487 3.122 6.8362 6.2055 6.8362 2.7645 0 6.1287-.5345 6.5055-.596 0-.0807 0-18.036145 0-18.132266-.0961 0-2.7491 0-2.8413 0zm-7.013 11.888266v-.0461c0-2.48766 1.5687-4.29474 3.7295-4.29474 2.0031 0 3.3335 1.33801 3.3335 1.88014v6.5285l-.0385.0077c-.0115.0039-1.1573.2192-3.2912.2192-2.13.0038-3.7333-1.8455-3.7333-4.2947z"/><path d="m66.9119.615234v18.132266c.3768.0615 3.741.596 6.5054.596 3.0836 0 6.2056-2.3492 6.2056-6.8362v-.0499c0-4.48698-2.9644-6.83618-5.8903-6.83618-1.5687 0-2.6991.38833-3.9063 1.33801l-.0769.06152s0-6.313239 0-6.405516c-.0923 0-2.7453 0-2.8375 0zm2.8259 15.963766-.0384-.0077v-6.5285c0-.54213 1.3265-1.88014 3.3296-1.88014 2.1608 0 3.7295 1.80708 3.7295 4.29474v.0499c0 2.4492-1.6033 4.2947-3.7295 4.2947-2.1339 0-3.2796-.2191-3.2912-.223z"/><path d="m83.1102 6.77842c.027.0769.7421 2.25693.769 2.34921 1.1381-.4883 2.1954-.81127 3.6295-.81127 2.0609 0 3.199 1.02658 3.199 2.88744v.3153l-.0616-.0192c-1.0035-.3307-1.9839-.5498-3.5218-.5498-3.2182 0-5.1368 1.6071-5.1368 4.2985v.05c0 2.7798 2.3377 4.0486 4.5062 4.0486 3.1336 0 6.6208-.5383 7.0015-.5998 0-.0807 0-7.4936 0-7.4936 0-3.63335-1.9263-5.55578-5.5712-5.55578-2.0416-.00384-3.4065.43063-4.8138 1.0804zm1.6879 8.36638v-.05c0-1.3188 1.115-2.1069 2.9798-2.1069 1.0304 0 2.107.1922 2.949.5305l.0307.0116v3.3757l-.0384.0077c-.0115.0039-1.2957.2423-3.3989.2423-1.511-.0039-2.5222-.8113-2.5222-2.0109z"/><path d="m97.0747 6.21704v12.84946h2.8375c0-.0961 0-10.68481 0-10.68481l.0384-.00769c.0116 0 1.2114-.20762 2.8914-.20762 1.746 0 2.784 1.27649 2.784 3.41042v7.4897h2.837c0-.0961 0-8.3933 0-8.3933 0-3.11815-1.726-5.05211-4.506-5.05211-3.16 0-6.5055.53444-6.8823.59595z"/><path d="m112.1.615234v18.451366h2.838c0-.0922 0-3.7641 0-3.7641l1.845-1.9916s3.845 5.7135 3.872 5.7557h3.276c-.096-.1461-5.229-7.8204-5.229-7.8204s4.891-5.19435 5.041-5.34815c-.208 0-3.388 0-3.43 0-.027.03076-5.375 5.95565-5.375 5.95565s0-11.142345 0-11.238466c-.096 0-2.749 0-2.838 0z"/></g></svg>

<svg width="125" height="20" viewBox="0 0 125 20" fill="none" xmlns="http://www.w3.org/2000/svg">
<path d="M1.33416 5.81347C1.33416 9.17386 3.57571 10.4273 6.94379 11.2693C10.1504 12.0383 10.8079 13.0341 10.8079 14.299C10.8079 15.6986 9.55444 16.6752 7.75506 16.6752C5.81341 16.6752 4.16397 15.9754 2.40688 14.4105C2.3492 14.4836 0.730524 16.4791 0.672852 16.5483C2.64526 18.3592 5.06751 19.3204 7.682 19.3204C11.2769 19.3204 13.6915 17.1827 13.6915 13.9953C13.6915 11.2078 12.0228 9.54297 8.27796 8.59713C4.88296 7.75511 4.2178 6.84004 4.2178 5.53664C4.2178 4.40241 5.18285 3.25664 7.02838 3.25664C8.54709 3.25664 10.0504 3.8449 11.6191 5.04834C11.6691 4.97529 13.1186 2.86062 13.1648 2.78757C11.3961 1.32653 9.40449 0.615234 7.07836 0.615234C3.74873 0.615234 1.33416 2.79911 1.33416 5.81347Z" fill="#282828"/>
<path d="M23.2805 5.84424C23.2613 5.9096 20.4084 15.1103 20.4084 15.1103C20.4084 15.1103 17.8247 5.96343 17.8054 5.89422C17.7362 5.89422 15.0256 5.89422 14.9026 5.89422C14.941 6.01726 18.9973 19.1013 19.0166 19.1666C19.0858 19.1666 21.4965 19.1666 21.5619 19.1666C21.5811 19.1013 24.4801 9.98514 24.4801 9.98514C24.4801 9.98514 27.3522 19.1013 27.3753 19.1666C27.4406 19.1666 29.8552 19.1666 29.9206 19.1666C29.9398 19.1013 34.0422 6.01726 34.0807 5.89422C33.9576 5.89422 31.3201 5.89422 31.2509 5.89422C31.2316 5.96343 28.6018 15.1065 28.6018 15.1065C28.6018 15.1065 25.7258 5.9096 25.7066 5.84424C25.6374 5.84424 23.3497 5.84424 23.2805 5.84424Z" fill="#282828"/>
<path d="M35.4686 12.4803V12.5303C35.4686 16.4905 38.21 19.3664 41.9856 19.3664C44.3848 19.3664 45.7151 18.659 46.7725 17.9938C46.7494 17.9246 46.0304 15.783 45.992 15.6792C44.7962 16.5097 43.6082 16.8673 42.0318 16.8673C39.9979 16.8673 38.6022 15.6331 38.3023 13.5684L38.2946 13.5146C38.2946 13.5146 47.6183 13.5146 47.7068 13.5146C47.7068 13.5069 47.7068 13.4953 47.7068 13.4953L47.7491 12.7071C47.7491 9.17758 45.8689 5.62109 41.6665 5.62109C38.137 5.62109 35.4686 8.57009 35.4686 12.4803ZM38.2792 11.546C38.556 9.39673 39.8787 8.00874 41.6473 8.00874C43.4621 8.00874 44.727 9.36213 44.9423 11.546L44.9462 11.5998H38.2754L38.2792 11.546Z" fill="#282828"/>
<path d="M60.2987 0.615234C60.2987 0.707511 60.2987 7.02075 60.2987 7.02075L60.2218 6.95923C59.0145 6.00955 57.8803 5.62122 56.3154 5.62122C53.3895 5.62122 50.429 7.97042 50.429 12.4574V12.5073C50.429 16.9943 53.551 19.3435 56.6345 19.3435C59.399 19.3435 62.7632 18.809 63.14 18.7475C63.14 18.6668 63.14 0.711355 63.14 0.615234C63.0439 0.615234 60.3909 0.615234 60.2987 0.615234ZM53.2857 12.5035V12.4574C53.2857 9.96974 54.8544 8.16266 57.0152 8.16266C59.0183 8.16266 60.3487 9.50067 60.3487 10.0428V16.5713L60.3102 16.579C60.2987 16.5829 59.1529 16.7982 57.019 16.7982C54.889 16.802 53.2857 14.9527 53.2857 12.5035Z" fill="#282828"/>
<path d="M66.9119 0.615234C66.9119 0.711355 66.9119 18.6668 66.9119 18.7475C67.2887 18.809 70.6529 19.3435 73.4173 19.3435C76.5009 19.3435 79.6229 16.9943 79.6229 12.5073V12.4574C79.6229 7.97042 76.6585 5.62122 73.7326 5.62122C72.1639 5.62122 71.0335 6.00955 69.8263 6.95923L69.7494 7.02075C69.7494 7.02075 69.7494 0.707511 69.7494 0.615234C69.6571 0.615234 67.0041 0.615234 66.9119 0.615234ZM69.7378 16.579L69.6994 16.5713V10.0428C69.6994 9.50067 71.0259 8.16266 73.029 8.16266C75.1898 8.16266 76.7585 9.96974 76.7585 12.4574V12.5073C76.7585 14.9565 75.1552 16.802 73.029 16.802C70.8951 16.802 69.7494 16.5829 69.7378 16.579Z" fill="#282828"/>
<path d="M83.1102 6.77842C83.1372 6.85532 83.8523 9.03535 83.8792 9.12763C85.0173 8.63933 86.0746 8.31636 87.5087 8.31636C89.5696 8.31636 90.7077 9.34294 90.7077 11.2038V11.5191L90.6461 11.4999C89.6426 11.1692 88.6622 10.9501 87.1243 10.9501C83.9061 10.9501 81.9875 12.5572 81.9875 15.2486V15.2986C81.9875 18.0784 84.3252 19.3472 86.4937 19.3472C89.6273 19.3472 93.1145 18.8089 93.4952 18.7474C93.4952 18.6667 93.4952 11.2538 93.4952 11.2538C93.4952 7.62045 91.5689 5.69802 87.924 5.69802C85.8824 5.69418 84.5175 6.12865 83.1102 6.77842ZM84.7981 15.1448V15.0948C84.7981 13.776 85.9131 12.9879 87.7779 12.9879C88.8083 12.9879 89.8849 13.1801 90.7269 13.5184L90.7576 13.53V16.9057L90.7192 16.9134C90.7077 16.9173 89.4235 17.1557 87.3203 17.1557C85.8093 17.1518 84.7981 16.3444 84.7981 15.1448Z" fill="#282828"/>
<path d="M97.0747 6.21704C97.0747 6.29779 97.0747 18.9704 97.0747 19.0665C97.167 19.0665 99.8199 19.0665 99.9122 19.0665C99.9122 18.9704 99.9122 8.38169 99.9122 8.38169L99.9506 8.374C99.9622 8.374 101.162 8.16638 102.842 8.16638C104.588 8.16638 105.626 9.44287 105.626 11.5768C105.626 11.5768 105.626 18.9704 105.626 19.0665C105.718 19.0665 108.371 19.0665 108.463 19.0665C108.463 18.9704 108.463 10.6732 108.463 10.6732C108.463 7.55505 106.737 5.62109 103.957 5.62109C100.797 5.62109 97.4515 6.15553 97.0747 6.21704Z" fill="#282828"/>
<path d="M112.1 0.615234C112.1 0.711355 112.1 18.9744 112.1 19.0666C112.193 19.0666 114.846 19.0666 114.938 19.0666C114.938 18.9744 114.938 15.3025 114.938 15.3025L116.783 13.3109C116.783 13.3109 120.628 19.0244 120.655 19.0666C120.705 19.0666 123.766 19.0666 123.931 19.0666C123.835 18.9205 118.702 11.2462 118.702 11.2462C118.702 11.2462 123.593 6.05185 123.743 5.89805C123.535 5.89805 120.355 5.89805 120.313 5.89805C120.286 5.92881 114.938 11.8537 114.938 11.8537C114.938 11.8537 114.938 0.711355 114.938 0.615234C114.842 0.615234 112.189 0.615234 112.1 0.615234Z" fill="#282828"/>
</svg>
